assets/logo.svg

<svg viewBox="0 0 440 230" version="1.1" xmlns="http://www.w3.org/2000/svg" xml:space="preserve" fill-rule="evenodd" clip-rule="evenodd" stroke-linejoin="round" stroke-miterlimit="1.414"><defs><path id="a" d="M114.2 164.646c-5.361 5.046-12.002 8.473-18.88 11.346-3.888 14.976-16.992 48.24-42.192 48.24-9.792 0-17.136-5.04-17.136-13.968 0-13.536 17.136-25.488 35.136-33.552l2.016-8.208c-4.32 4.608-9.792 7.2-17.136 7.2-15.84 0-22.752-13.104-22.752-29.664 0-28.368 20.736-67.104 52.128-67.104 15.984 0 22.608 10.08 22.608 19.152 0 7.344-4.32 13.968-11.808 13.968-4.896 0-8.784-2.736-9.648-6.624 3.6-3.6 5.328-8.784 5.328-12.096 0-3.312-1.728-5.76-5.616-5.76-15.696 0-29.808 38.016-29.808 60.48 0 9.216 2.448 15.696 8.208 15.696 7.632 0 13.248-14.832 18-34.272l1.152-4.608h24.48l-10.512 41.184c6.292-2.797 11.788-6.07 15.781-10.787 1.272-18.449 16.756-39.181 39.371-39.181 12.816 0 18.72 6.768 18.72 14.544 0 11.808-13.536 25.488-34.272 29.232.864 6.768 4.464 11.808 11.952 11.808 11.088 0 25.92-10.224 30.24-27.648l6.336-24.768h23.04l-2.304 8.928c7.488-8.928 16.272-12.096 23.328-12.096 8.208 0 13.536 4.32 13.536 13.248 0 6.336-2.736 14.112-5.184 21.024-2.016 5.616-3.744 10.8-3.744 14.112 0 2.448 1.008 4.032 3.744 4.032 7.488 0 14.4-11.808 17.568-24.48l3.744-15.12h-6.48l2.304-9.648h6.624l6.624-27.072 23.76-2.88-7.488 29.952h12.24l-2.304 9.648h-12.24l-5.328 21.456c-1.296 5.472-2.448 9.648-2.448 12.384 0 4.608 3.168 5.616 5.328 5.616 6.624 0 16.848-10.224 20.448-24.336l8.64-34.992 5.76 1.728-1.296 5.184 12.816 3.312c14.256 3.6 16.992 10.08 16.992 14.688 0 4.032-2.016 10.224-3.888 16.272-1.728 5.616-3.6 11.232-3.6 14.544 0 2.304.864 3.744 3.312 3.744 7.116 0 14.091-11.534 17.311-24.036l.113-.444 6.192-24.768h23.04l-8.208 32.688c-.576 2.448-2.016 7.488-2.016 10.512 0 3.168 1.44 5.04 3.888 5.04 5.76 0 11.52-10.368 16.56-31.104l4.176-17.136h23.04l-13.968 55.584c11.232-6.192 19.008-14.544 22.176-31.104 1.296-.576 2.448-1.008 3.456-1.008 2.304 0 3.6 1.728 3.6 5.76 0 11.664-11.52 23.76-20.592 30.24-3.6 2.592-7.344 4.608-11.232 6.336-5.184 16.992-15.696 40.752-39.168 40.752-10.224 0-16.128-4.464-16.128-12.672 0-14.4 18-21.744 32.688-27.36l3.6-14.688c-7.344 9.36-14.976 11.808-21.6 11.808-10.068 0-13.852-5.585-13.965-14.143-5.918 8.05-14.447 14.143-26.499 14.143-11.088 0-13.68-5.184-13.68-12.528 0-3.888.72-7.92 1.728-11.808 2.304-9.504 6.336-18.72 6.336-24.192 0-3.6-1.728-5.472-5.04-6.336l-4.176-1.008-4.752 19.152c-4.176 16.128-18.288 36.72-39.168 36.72-10.352 0-15.268-5.165-15.54-14.305-5.916 8.13-14.508 14.305-26.796 14.305-11.376 0-14.112-5.328-14.112-12.528 0-7.344 2.88-15.84 5.328-22.896 1.728-5.184 3.312-9.792 3.312-12.672 0-2.16-.864-3.312-3.312-3.312-5.76 0-11.952 6.768-15.264 19.872l-7.056 28.368h-23.04l2.842-11.369c-8.126 9.051-19.577 15.113-33.082 15.113-15.607 0-23.821-8.181-26.192-18.834zm253.424 51.234c-2.16 0-4.32-1.008-4.32-4.752 0-6.336 6.192-10.8 18.72-15.984-2.304 8.784-7.2 20.736-14.4 20.736zm-314.64-1.728c-2.304 0-4.176-1.728-4.176-5.472 0-6.48 5.328-14.112 19.728-21.6-4.032 15.408-9.792 27.072-15.552 27.072zm100.224-89.28c2.88 0 3.744 2.88 3.744 5.472 0 7.632-7.2 19.008-19.728 22.032 1.44-12.672 9.216-27.504 15.984-27.504z"/></defs><use href="#a" fill="#3e4a21"/><use href="#a" x="-4" y="-4" fill="#95ab63" stroke="#fff" stroke-width="2"/><path d="M31.081 88.547l2.543 13.031 39.022-6.427 25.387-16.436-7.896-4.132-3.764-11.063-55.292 25.027z" fill="#e6e6e6"/><path d="M70.343 4.034a2.547 2.547 0 0 1 .458 1.157l.022.034.059-.023.062.231a3.305 3.305 0 0 1 .391 1.446L88.12 69.013c-1.641 1.746-8.917 8.68-26.554 15.498-17.638 6.818-27.685 6.581-30.075 6.393L2.119 33.636a3.38 3.38 0 0 1-.683-1.333l-.109-.213.059-.023-.007-.04a2.599 2.599 0 0 1-.439-1.164 2.592 2.592 0 0 1-.308-.569c-1.917-4.961 12.099-15.001 31.306-22.426C51.145.443 68.27-1.555 70.187 3.406c.078.201.13.411.156.628zM1.335 31.312c-.008.245.006.484.044.715 2.938 4.265 19.489 2.145 37.966-4.998 18.477-7.143 32.15-16.706 31.456-21.838a3.624 3.624 0 0 0-.449-.558c-.426 5.257-13.735 14.343-31.47 21.198-17.735 6.856-33.695 9.085-37.547 5.481zm87.594 39.384c9.159-1.026 15.578.096 16.924 3.577 2.557 6.614-14.162 19.24-37.343 28.201-23.182 8.961-44.046 10.864-46.603 4.25-1.346-3.481 2.65-8.629 10.118-14.031l2.884 4.875s3.514 5.525 29.897-4.674c26.383-10.199 25.268-16.65 25.268-16.65l-1.145-5.548z" fill="#152d38"/></svg>

<?xml version="1.0" encoding="UTF-8" standalone="no"?>
<!DOCTYPE svg PUBLIC "-//W3C//DTD SVG 1.1//EN" "http://www.w3.org/Graphics/SVG/1.1/DTD/svg11.dtd">
<svg viewBox="0 0 440 230" version="1.1" xmlns="http://www.w3.org/2000/svg" xmlns:xlink="http://www.w3.org/1999/xlink" xml:space="preserve" style="fill-rule:evenodd;clip-rule:evenodd;stroke-linejoin:round;stroke-miterlimit:1.41421;">
    <defs>
        <path id="text" d="M114.2,164.646C108.839,169.692 102.198,173.119 95.32,175.992C91.432,190.968 78.328,224.232 53.128,224.232C43.336,224.232 35.992,219.192 35.992,210.264C35.992,196.728 53.128,184.776 71.128,176.712L73.144,168.504C68.824,173.112 63.352,175.704 56.008,175.704C40.168,175.704 33.256,162.6 33.256,146.04C33.256,117.672 53.992,78.936 85.384,78.936C101.368,78.936 107.992,89.016 107.992,98.088C107.992,105.432 103.672,112.056 96.184,112.056C91.288,112.056 87.4,109.32 86.536,105.432C90.136,101.832 91.864,96.648 91.864,93.336C91.864,90.024 90.136,87.576 86.248,87.576C70.552,87.576 56.44,125.592 56.44,148.056C56.44,157.272 58.888,163.752 64.648,163.752C72.28,163.752 77.896,148.92 82.648,129.48L83.8,124.872L108.28,124.872L97.768,166.056C104.06,163.259 109.556,159.986 113.549,155.269C114.821,136.82 130.305,116.088 152.92,116.088C165.736,116.088 171.64,122.856 171.64,130.632C171.64,142.44 158.104,156.12 137.368,159.864C138.232,166.632 141.832,171.672 149.32,171.672C160.408,171.672 175.24,161.448 179.56,144.024L185.896,119.256L208.936,119.256L206.632,128.184C214.12,119.256 222.904,116.088 229.96,116.088C238.168,116.088 243.496,120.408 243.496,129.336C243.496,135.672 240.76,143.448 238.312,150.36C236.296,155.976 234.568,161.16 234.568,164.472C234.568,166.92 235.576,168.504 238.312,168.504C245.8,168.504 252.712,156.696 255.88,144.024L259.624,128.904L253.144,128.904L255.448,119.256L262.072,119.256L268.696,92.184L292.456,89.304L284.968,119.256L297.208,119.256L294.904,128.904L282.664,128.904L277.336,150.36C276.04,155.832 274.888,160.008 274.888,162.744C274.888,167.352 278.056,168.36 280.216,168.36C286.84,168.36 297.064,158.136 300.664,144.024L309.304,109.032L315.064,110.76L313.768,115.944L326.584,119.256C340.84,122.856 343.576,129.336 343.576,133.944C343.576,137.976 341.56,144.168 339.688,150.216C337.96,155.832 336.088,161.448 336.088,164.76C336.088,167.064 336.952,168.504 339.4,168.504C346.516,168.504 353.491,156.97 356.711,144.468L356.824,144.024L363.016,119.256L386.056,119.256L377.848,151.944C377.272,154.392 375.832,159.432 375.832,162.456C375.832,165.624 377.272,167.496 379.72,167.496C385.48,167.496 391.24,157.128 396.28,136.392L400.456,119.256L423.496,119.256L409.528,174.84C420.76,168.648 428.536,160.296 431.704,143.736C433,143.16 434.152,142.728 435.16,142.728C437.464,142.728 438.76,144.456 438.76,148.488C438.76,160.152 427.24,172.248 418.168,178.728C414.568,181.32 410.824,183.336 406.936,185.064C401.752,202.056 391.24,225.816 367.768,225.816C357.544,225.816 351.64,221.352 351.64,213.144C351.64,198.744 369.64,191.4 384.328,185.784L387.928,171.096C380.584,180.456 372.952,182.904 366.328,182.904C356.26,182.904 352.476,177.319 352.363,168.761C346.445,176.811 337.916,182.904 325.864,182.904C314.776,182.904 312.184,177.72 312.184,170.376C312.184,166.488 312.904,162.456 313.912,158.568C316.216,149.064 320.248,139.848 320.248,134.376C320.248,130.776 318.52,128.904 315.208,128.04L311.032,127.032L306.28,146.184C302.104,162.312 287.992,182.904 267.112,182.904C256.76,182.904 251.844,177.739 251.572,168.599C245.656,176.729 237.064,182.904 224.776,182.904C213.4,182.904 210.664,177.576 210.664,170.376C210.664,163.032 213.544,154.536 215.992,147.48C217.72,142.296 219.304,137.688 219.304,134.808C219.304,132.648 218.44,131.496 215.992,131.496C210.232,131.496 204.04,138.264 200.728,151.368L193.672,179.736L170.632,179.736L173.474,168.367C165.348,177.418 153.897,183.48 140.392,183.48C124.785,183.48 116.571,175.299 114.2,164.646ZM367.624,215.88C365.464,215.88 363.304,214.872 363.304,211.128C363.304,204.792 369.496,200.328 382.024,195.144C379.72,203.928 374.824,215.88 367.624,215.88ZM52.984,214.152C50.68,214.152 48.808,212.424 48.808,208.68C48.808,202.2 54.136,194.568 68.536,187.08C64.504,202.488 58.744,214.152 52.984,214.152ZM153.208,124.872C156.088,124.872 156.952,127.752 156.952,130.344C156.952,137.976 149.752,149.352 137.224,152.376C138.664,139.704 146.44,124.872 153.208,124.872Z" />
    </defs>
    <use href="#text" style="fill:rgb(62,74,33);" />
    <use href="#text" style="fill:rgb(149,171,99);stroke:white;stroke-width:2px;" x="-4" y="-4" />
    <path d="M31.081,88.547L33.624,101.578L72.646,95.151L98.033,78.715L90.137,74.583L86.373,63.52L31.081,88.547Z" style="fill:rgb(230,230,230);"/>
    <path d="M70.343,4.034C70.47,4.212 70.573,4.402 70.65,4.603C70.723,4.792 70.773,4.988 70.801,5.191C70.808,5.202 70.815,5.214 70.823,5.225L70.882,5.202L70.944,5.433C71.008,5.552 71.064,5.675 71.113,5.801C71.245,6.143 71.318,6.503 71.335,6.879L88.12,69.013C86.479,70.759 79.203,77.693 61.566,84.511C43.928,91.329 33.881,91.092 31.491,90.904L2.119,33.636C1.878,33.346 1.69,33.031 1.558,32.689C1.509,32.563 1.469,32.434 1.436,32.303L1.327,32.09L1.386,32.067C1.383,32.054 1.381,32.04 1.379,32.027C1.263,31.858 1.168,31.68 1.095,31.491C1.017,31.29 0.966,31.081 0.94,30.863C0.813,30.685 0.71,30.495 0.632,30.294C-1.285,25.333 12.731,15.293 31.938,7.868C51.145,0.443 68.27,-1.555 70.187,3.406C70.265,3.607 70.317,3.817 70.343,4.034ZM1.335,31.312C1.327,31.557 1.341,31.796 1.379,32.027C4.317,36.292 20.868,34.172 39.345,27.029C57.822,19.886 71.495,10.323 70.801,5.191C70.673,4.994 70.523,4.808 70.352,4.633C69.926,9.89 56.617,18.976 38.882,25.831C21.147,32.687 5.187,34.916 1.335,31.312ZM88.929,70.696C98.088,69.67 104.507,70.792 105.853,74.273C108.41,80.887 91.691,93.513 68.51,102.474C45.328,111.435 24.464,113.338 21.907,106.724C20.561,103.243 24.557,98.095 32.025,92.693L34.909,97.568C34.909,97.568 38.423,103.093 64.806,92.894C91.189,82.695 90.074,76.244 90.074,76.244L88.929,70.696Z" style="fill:rgb(21,45,56);"/>
</svg>
